app/images/dist/chat-icon.svg

<svg width="37" height="38" viewBox="0 0 37 38" fill="none" xmlns="http://www.w3.org/2000/svg">
<path d="M8.65694 17.7146C8.55336 17.0469 8.49961 16.3631 8.49961 15.6666C8.49961 8.30278 14.5084 2.33325 21.9207 2.33325C29.3328 2.33325 35.3417 8.30278 35.3417 15.6666C35.3417 17.3301 35.0352 18.9224 34.475 20.3908C34.3587 20.6958 34.3003 20.8483 34.274 20.9673C34.2478 21.0853 34.2377 21.1683 34.2348 21.2891C34.232 21.4109 34.2485 21.5453 34.2817 21.8138L34.9525 27.2641C35.0252 27.8541 35.0615 28.1491 34.9633 28.3636C34.8773 28.5516 34.7247 28.7008 34.5348 28.7824C34.3182 28.8756 34.024 28.8324 33.4358 28.7463L28.1272 27.9681C27.8498 27.9274 27.7113 27.9071 27.585 27.9079C27.4602 27.9086 27.3738 27.9178 27.2515 27.9434C27.128 27.9694 26.9702 28.0286 26.6547 28.1468C25.1825 28.6983 23.587 28.9999 21.9207 28.9999C21.2237 28.9999 20.5392 28.9471 19.8708 28.8454M11.219 35.6666C16.1605 35.6666 20.1663 31.5626 20.1663 26.4999C20.1663 21.4373 16.1605 17.3333 11.219 17.3333C6.27747 17.3333 2.27161 21.4373 2.27161 26.4999C2.27161 27.5176 2.43347 28.4964 2.73226 29.4111C2.85856 29.7978 2.92171 29.9911 2.94244 30.1231C2.96407 30.2611 2.96786 30.3384 2.95981 30.4778C2.95209 30.6113 2.91869 30.7621 2.85191 31.0638L1.83301 35.6666L6.82434 34.9849C7.09679 34.9478 7.23301 34.9291 7.35196 34.9299C7.47721 34.9308 7.54369 34.9376 7.66653 34.9621C7.78318 34.9852 7.95661 35.0464 8.30346 35.1689C9.21732 35.4914 10.1982 35.6666 11.219 35.6666Z" stroke="white" stroke-width="3" stroke-linecap="round" stroke-linejoin="round"/>
</svg>

<svg width="37" height="38" fill="none" xmlns="http://www.w3.org/2000/svg"><path d="M8.657 17.715a13.352 13.352 0 0 1-.157-2.048c0-7.364 6.008-13.334 13.42-13.334 7.413 0 13.422 5.97 13.422 13.334 0 1.663-.307 3.255-.867 4.724-.116.305-.175.457-.201.576a1.497 1.497 0 0 0-.04.322 3.88 3.88 0 0 0 .048.525l.67 5.45c.073.59.11.885.011 1.1a.833.833 0 0 1-.428.418c-.217.094-.511.05-1.1-.036l-5.308-.778a3.86 3.86 0 0 0-.542-.06c-.125 0-.211.01-.334.035-.123.026-.28.086-.596.204a13.62 13.62 0 0 1-6.784.699m-8.652 6.82c4.941 0 8.947-4.103 8.947-9.166 0-5.063-4.006-9.167-8.947-9.167-4.942 0-8.947 4.104-8.947 9.167 0 1.018.161 1.996.46 2.911.127.387.19.58.21.712.022.138.026.215.018.355-.008.133-.041.284-.108.586l-1.019 4.603 4.991-.682c.273-.037.409-.056.528-.055.125 0 .192.008.315.032.116.023.29.084.636.207a8.743 8.743 0 0 0 2.916.498Z" stroke="#fff" stroke-width="3" stroke-linecap="round" stroke-linejoin="round"/></svg>
